X:6
T:B006-  Alas, poor thing
S:via BBBM, for 'The Merry Musician', I, 1716
Q:1/4=120
L:1/4
M:6/4
K:D
A|\
d2ddef|d3c2B|A2FE2D|(A3A2)B|\
e2eefg|f3e2E|G2AB2e|(c3c2)A|\
d2ddef|d2dd2B|A2FE2D|(A3A2)e|\
E2FG2A|B2ec2d|A3c3|(d3d2)|]
